website/src/static/table/editingandaddingcontent.svg

<svg width="144" height="80" viewBox="0 0 144 80" fill="none" xmlns="http://www.w3.org/2000/svg">
<mask id="path-1-inside-1_766_65115" fill="white">
<path d="M0 0H143V40H0V0Z"/>
</mask>
<path d="M0 0H143V40H0V0Z" fill="#F4F5F9"/>
<path d="M12.5284 16.4062V15.2727H19.2827V16.4062H16.5597V24H15.2472V16.4062H12.5284ZM20.7752 24V15.2727H22.092V19.0653H26.4428V15.2727H27.7638V24H26.4428V20.1946H22.092V24H20.7752Z" fill="#191B23"/>
<path d="M143 40V41H144V40H143ZM142 0V40H144V0H142ZM143 39H0V41H143V39Z" fill="#E0E1E9" mask="url(#path-1-inside-1_766_65115)"/>
<mask id="path-4-inside-2_766_65115" fill="white">
<path d="M0 40H143V80H0V40Z"/>
</mask>
<path d="M0 40H143V80H0V40Z" fill="white"/>
<g filter="url(#filter0_d_766_65115)">
<rect x="12" y="44" width="61" height="28" rx="6" fill="white"/>
<rect x="20" y="48" width="1" height="20" fill="#191B23"/>
<rect x="12.5" y="44.5" width="60" height="27" rx="5.5" stroke="#006DCA"/>
</g>
<path fill-rule="evenodd" clip-rule="evenodd" d="M96.7071 54.2929C97.0976 54.6834 97.0976 55.3166 96.7071 55.7071L90.7111 61.7072C90.3206 62.0977 89.6874 62.0977 89.2969 61.7072L86.2929 58.6994C85.9024 58.3089 85.9024 57.6757 86.2929 57.2852C86.6834 56.8947 87.3166 56.8947 87.7071 57.2852L90.004 59.5859L95.2929 54.2929C95.6834 53.9024 96.3166 53.9024 96.7071 54.2929Z" fill="#009F81"/>
<path d="M118.323 53.3229C117.892 53.7534 117.892 54.4514 118.323 54.8819L121.441 58L118.323 61.1181C117.892 61.5486 117.892 62.2466 118.323 62.6771C118.753 63.1076 119.451 63.1076 119.882 62.6771L123 59.559L126.118 62.6771C126.549 63.1076 127.247 63.1076 127.677 62.6771C128.108 62.2466 128.108 61.5486 127.677 61.1181L124.559 58L127.677 54.8819C128.108 54.4514 128.108 53.7534 127.677 53.3229C127.247 52.8924 126.549 52.8924 126.118 53.3229L123 56.441L119.882 53.3229C119.451 52.8924 118.753 52.8924 118.323 53.3229Z" fill="#6C6E79"/>
<path d="M143 79H0V81H143V79Z" fill="#E0E1E9" mask="url(#path-4-inside-2_766_65115)"/>
<defs>
<filter id="filter0_d_766_65115" x="9" y="41" width="67" height="34" filterUnits="userSpaceOnUse" color-interpolation-filters="sRGB">
<feFlood flood-opacity="0" result="BackgroundImageFix"/>
<feColorMatrix in="SourceAlpha" type="matrix" values="0 0 0 0 0 0 0 0 0 0 0 0 0 0 0 0 0 0 127 0" result="hardAlpha"/>
<feMorphology radius="3" operator="dilate" in="SourceAlpha" result="effect1_dropShadow_766_65115"/>
<feOffset/>
<feColorMatrix type="matrix" values="0 0 0 0 0 0 0 0 0 0.560784 0 0 0 0 0.972549 0 0 0 0.3 0"/>
<feBlend mode="normal" in2="BackgroundImageFix" result="effect1_dropShadow_766_65115"/>
<feBlend mode="normal" in="SourceGraphic" in2="effect1_dropShadow_766_65115" result="shape"/>
</filter>
</defs>
</svg>

<svg xmlns="http://www.w3.org/2000/svg" width="144" height="80" fill="none"><mask id="a" fill="#fff"><path d="M0 0h143v40H0V0Z"/></mask><path fill="#F4F5F9" d="M0 0h143v40H0V0Z"/><path fill="#191B23" d="M12.528 16.406v-1.133h6.755v1.133H16.56V24h-1.313v-7.594h-2.719ZM20.775 24v-8.727h1.317v3.792h4.35v-3.792h1.322V24h-1.321v-3.805h-4.351V24h-1.317Z"/><path fill="#E0E1E9" d="M143 40v1h1v-1h-1Zm-1-40v40h2V0h-2Zm1 39H0v2h143v-2Z" mask="url(#a)"/><mask id="c" fill="#fff"><path d="M0 40h143v40H0V40Z"/></mask><path fill="#fff" d="M0 40h143v40H0V40Z"/><g filter="url(#b)"><rect width="61" height="28" x="12" y="44" fill="#fff" rx="6"/><path fill="#191B23" d="M20 48h1v20h-1z"/><rect width="60" height="27" x="12.5" y="44.5" stroke="#006DCA" rx="5.5"/></g><path fill="#009F81" fill-rule="evenodd" d="M96.707 54.293a1 1 0 0 1 0 1.414l-5.996 6a1 1 0 0 1-1.414 0L86.293 58.7a1 1 0 0 1 1.414-1.414l2.297 2.3 5.289-5.292a1 1 0 0 1 1.414 0Z" clip-rule="evenodd"/><path fill="#6C6E79" d="M118.323 53.323a1.101 1.101 0 0 0 0 1.559L121.441 58l-3.118 3.118a1.101 1.101 0 1 0 1.559 1.56L123 59.558l3.118 3.118a1.102 1.102 0 0 0 1.559-1.559L124.559 58l3.118-3.118a1.101 1.101 0 1 0-1.559-1.56L123 56.442l-3.118-3.118a1.102 1.102 0 0 0-1.559 0Z"/><path fill="#E0E1E9" d="M143 79H0v2h143v-2Z" mask="url(#c)"/><defs><filter id="b" width="67" height="34" x="9" y="41" color-interpolation-filters="sRGB" filterUnits="userSpaceOnUse"><feFlood flood-opacity="0" result="BackgroundImageFix"/><feColorMatrix in="SourceAlpha" result="hardAlpha" values="0 0 0 0 0 0 0 0 0 0 0 0 0 0 0 0 0 0 127 0"/><feMorphology in="SourceAlpha" operator="dilate" radius="3" result="effect1_dropShadow_766_65115"/><feOffset/><feColorMatrix values="0 0 0 0 0 0 0 0 0 0.560784 0 0 0 0 0.972549 0 0 0 0.3 0"/><feBlend in2="BackgroundImageFix" result="effect1_dropShadow_766_65115"/><feBlend in="SourceGraphic" in2="effect1_dropShadow_766_65115" result="shape"/></filter></defs></svg>
